img/FormalEvent.svg

<svg width="82" height="139" viewBox="0 0 82 139" fill="none" xmlns="http://www.w3.org/2000/svg">
<path d="M42.6043 134.113H38.3281L36.2934 118.433L42.6052 118.433L42.6043 134.113Z" fill="#FFB8B8"/>
<path d="M43.6952 132.786L35.2733 132.786H35.273C33.8496 132.786 32.4845 133.324 31.478 134.28C30.4715 135.237 29.906 136.535 29.9059 137.888V138.054L43.6949 138.054L43.6952 132.786Z" fill="#2F2E41"/>
<path d="M53.2549 118.719L50.0991 121.463L37.4654 111.197L42.123 107.148L53.2549 118.719Z" fill="#FFB8B8"/>
<path d="M53.1176 117.04L46.9027 122.443L46.9025 122.443C45.8522 123.356 45.2265 124.629 45.1631 125.98C45.0996 127.332 45.6037 128.652 46.5642 129.651L46.6819 129.773L56.8574 120.927L53.1176 117.04Z" fill="#2F2E41"/>
<path d="M35.8829 79.0507L37.0949 102.093L34.0646 127.153L43.1552 128.305L48.9122 96.621L50.7305 75.0181L35.8829 79.0507Z" fill="#2F2E41"/>
<path d="M21.6413 70.6982C21.6413 70.6982 18.0052 93.4531 25.5805 100.942C33.1558 108.431 43.4582 121.681 43.4582 121.681L50.7305 113.04L32.2468 94.3172L35.8829 81.6436L50.7305 75.0187L48.3064 59.1767L26.4895 58.8887L21.6413 70.6982Z" fill="#2F2E41"/>
<path d="M38.3267 17.9875C34.2282 17.9875 30.9057 14.8292 30.9057 10.9332C30.9057 7.03723 34.2282 3.87891 38.3267 3.87891C42.4253 3.87891 45.7478 7.03723 45.7478 10.9332C45.7478 14.8292 42.4253 17.9875 38.3267 17.9875Z" fill="#FFB8B8"/>
<path d="M32.1715 20.9585L31.0348 22.5955L28.0045 30.6606L30.4286 62.0565L44.6704 62.3447L46.4883 26.34L42.6798 21.8147L32.1715 20.9585Z" fill="#CCCCCC"/>
<path d="M52.2455 27.2045L54.6696 26.9165C54.6696 26.9165 55.2757 27.2045 55.5787 29.2208C55.8817 31.237 59.5178 49.0953 59.5178 49.0953L54.6696 70.986L49.2154 64.0732L52.5485 51.9756L49.2154 39.8781L52.2455 27.2045Z" fill="#2F2E41"/>
<path d="M21.3382 26.9165H19.5203L14.975 50.2472L19.217 68.3937L23.4594 61.7688L22.2473 54.5679L22.8532 48.2312L24.9744 44.4865L21.3382 26.9165Z" fill="#2F2E41"/>
<path d="M33.9416 10.9328L35.2909 10.6121C35.2909 10.6121 36.3028 5.16105 38.6641 5.80235C41.0254 6.44365 47.0972 7.08495 47.0972 4.51974C47.0972 1.95453 41.3627 -0.290018 37.9895 0.0306328C34.6162 0.351283 30.3081 1.41503 29.2191 6.12299C27.4733 13.6701 32.821 15.5764 32.821 15.5764L32.732 15.3016C32.4849 14.5386 32.4672 13.7251 32.681 12.9531C32.8947 12.1811 33.3314 11.4813 33.9416 10.9328Z" fill="#2F2E41"/>
<path d="M54.3667 26.9159L44.6703 23.1715L42.3977 21.5873L35.5799 50.2469L31.0348 37.2852L32.3983 20.7231L19.8233 26.9159L24.0655 46.5024L24.6715 53.9913L22.8534 60.0401C22.8534 60.0401 16.4902 64.3606 18.6113 68.9692C20.7324 73.5778 23.1565 73.8658 23.1565 73.8658C23.1565 73.8658 33.4589 64.6487 34.0649 62.3444C34.6709 60.0401 35.5799 56.0076 35.5799 56.0076C35.5799 56.0076 40.7312 74.4419 46.7914 74.1539C52.8516 73.8658 52.8516 67.8171 52.8516 67.8171L51.3366 61.4803L48.9125 54.8554L50.1245 43.9101L54.3667 26.9159Z" fill="#2F2E41"/>
<path d="M1.2364 138.543H81.6998C81.7794 138.543 81.8558 138.513 81.9121 138.459C81.9684 138.406 82 138.333 82 138.258C82 138.182 81.9684 138.109 81.9121 138.056C81.8558 138.002 81.7794 137.972 81.6998 137.972H1.2364C1.15678 137.972 1.0804 138.002 1.02409 138.056C0.967789 138.109 0.936172 138.182 0.936172 138.258C0.936172 138.333 0.967789 138.406 1.02409 138.459C1.0804 138.513 1.15678 138.543 1.2364 138.543Z" fill="#CCCCCC"/>
</svg>

<svg width="82" height="139" fill="none" xmlns="http://www.w3.org/2000/svg"><path d="M42.604 134.113h-4.276l-2.035-15.68h6.312v15.68z" fill="#FFB8B8"/><path d="M43.695 132.786h-8.422a5.515 5.515 0 0 0-3.795 1.494 4.98 4.98 0 0 0-1.572 3.608v.166h13.789v-5.268z" fill="#2F2E41"/><path d="m53.255 118.719-3.156 2.744-12.634-10.266 4.658-4.049 11.132 11.571z" fill="#FFB8B8"/><path d="m53.118 117.04-6.215 5.403c-1.05.913-1.676 2.186-1.74 3.537a4.957 4.957 0 0 0 1.401 3.671l.118.122 10.175-8.846-3.74-3.887zM35.883 79.05l1.212 23.043-3.03 25.06 9.09 1.152 5.757-31.684 1.819-21.603-14.848 4.033z" fill="#2F2E41"/><path d="M21.641 70.698s-3.636 22.755 3.94 30.244c7.575 7.489 17.877 20.739 17.877 20.739l7.273-8.641-18.484-18.723 3.636-12.673 14.847-6.625-2.424-15.842-21.816-.288-4.849 11.81z" fill="#2F2E41"/><path d="M38.327 17.988c-4.099 0-7.421-3.159-7.421-7.055s3.322-7.054 7.42-7.054c4.1 0 7.422 3.158 7.422 7.054 0 3.896-3.323 7.055-7.421 7.055z" fill="#FFB8B8"/><path d="m32.172 20.959-1.137 1.637-3.03 8.065 2.424 31.395 14.241.289 1.818-36.005-3.808-4.525-10.508-.857z" fill="#CCC"/><path d="m52.245 27.204 2.425-.288s.606.288.909 2.305c.303 2.016 3.939 19.874 3.939 19.874L54.67 70.986l-5.455-6.913 3.333-12.097-3.333-12.098 3.03-12.674zM21.338 26.916H19.52l-4.545 23.331 4.242 18.147 4.242-6.625-1.212-7.201.606-6.337 2.121-3.745-3.636-17.57zM33.942 10.933l1.349-.32s1.012-5.452 3.373-4.81c2.361.64 8.433 1.282 8.433-1.283S41.363-.29 37.99.03c-3.373.321-7.68 1.385-8.77 6.093-1.746 7.547 3.602 9.453 3.602 9.453l-.089-.274a4.076 4.076 0 0 1-.051-2.349 4.242 4.242 0 0 1 1.26-2.02z" fill="#2F2E41"/><path d="m54.367 26.916-9.697-3.744-2.272-1.585-6.818 28.66-4.545-12.962 1.363-16.562-12.575 6.193 4.242 19.586.607 7.49-1.819 6.048s-6.363 4.32-4.242 8.93c2.121 4.608 4.546 4.896 4.546 4.896s10.302-9.217 10.908-11.522c.606-2.304 1.515-6.336 1.515-6.336S40.73 74.442 46.79 74.154c6.06-.288 6.06-6.337 6.06-6.337l-1.514-6.337-2.425-6.625 1.212-10.945 4.243-16.994z" fill="#2F2E41"/><path d="M1.236 138.543H81.7c.08 0 .156-.03.212-.084a.277.277 0 0 0 0-.403.307.307 0 0 0-.212-.084H1.236c-.08 0-.156.03-.212.084a.277.277 0 0 0 0 .403.307.307 0 0 0 .212.084z" fill="#CCC"/></svg>
